packages/core/src/svgs/tokens/branded/XCH.svg

<svg width="24" height="24" viewBox="0 0 24 24" fill="none" xmlns="http://www.w3.org/2000/svg">
<path d="M14.1739 10.4782H15.9131V15.6956H14.1739V10.4782ZM11.5826 10.4782C11.2087 10.4782 10.4 10.5 9.82606 10.9522V8.73475H8.08694V11.9999C8.26086 12.0783 8.64346 12.1696 8.82607 12.2695L8.97824 12.3564L9.05216 12.4C9.05216 12.4 8.03477 13.939 6.65216 14.2608C5.83042 14.4522 4.86956 14.2173 4.66956 13.4217L4.65216 13.3261C4.99921 13.1233 5.3664 12.9572 5.74781 12.8304L5.7739 12.8217C6.5826 12.5348 7.26085 12.4391 7.26085 12.4391C6.72953 12.3907 6.1941 12.4156 5.66955 12.513H5.66086C5.26086 12.5913 4.93043 12.7043 4.6739 12.8173C4.76653 12.4939 4.95095 12.2044 5.20485 11.9836C5.45873 11.763 5.77119 11.6206 6.10433 11.5739L6.14782 11.5651L6.27825 11.5522H6.32173L6.4826 11.5434H6.51737L6.65216 11.5522H6.70433L6.74782 11.5609C7.00868 11.5869 7.29564 11.6522 7.65216 11.7696V10.6435C7.47825 10.5913 7.33911 10.5434 7.14781 10.4956C6.64782 10.3652 5.78694 10.2304 4.84346 10.4521C3.33477 10.8086 2.90435 11.8957 2.90435 13.2173C2.90435 13.3912 2.91738 13.5478 2.94782 13.6956C2.61739 13.9043 2.29565 14.1478 2 14.426L3.01304 13.9913C3.39564 15.2608 4.73912 15.6869 5.75216 15.6869C6.80433 15.6869 7.28259 15.3957 8.08694 14.9087V15.6956H9.82606V12.4521C9.82606 12.0739 10.5218 11.8521 10.8434 11.8521C11.2652 11.8521 11.5652 12.1391 11.5652 12.6043V15.6956H13.3043V12.1043C13.3043 11.0304 12.6087 10.4782 11.5826 10.4782ZM15.0434 8.30432C14.5348 8.30432 14.1739 8.66519 14.1739 9.17388C14.1739 9.68258 14.5348 10.0434 15.0434 10.0434C15.5521 10.0434 15.9131 9.68258 15.9131 9.17388C15.9131 8.66519 15.5521 8.30432 15.0434 8.30432ZM21.5652 12.6522V10.4782H19.826V10.9478C18.1348 9.87822 17.1651 10.9783 17.1651 10.9783C16.6435 11.4348 16.3478 12.1738 16.3478 13.0956C16.3478 14.7261 17.3477 15.6956 18.6391 15.6956C19.126 15.6956 19.5738 15.5869 19.9609 15.0609C20.0043 15.1869 20.1043 15.5912 20.1739 15.6956H22C21.6869 15.1912 21.5565 13.1652 21.5652 12.6522ZM19.0478 14.2826C18.4826 14.2826 18.0782 13.7956 18.0782 13.1087C18.0782 12.4217 18.4826 11.9347 19.0478 11.9347C19.4477 11.9347 19.6739 12.1738 19.826 12.5521V13.6651C19.6739 14.0434 19.4477 14.2826 19.0478 14.2826Z" fill="#3AAC59"/>
</svg>

<svg xmlns="http://www.w3.org/2000/svg" width="24" height="24" fill="none" viewBox="0 0 24 24">
    <path fill="#3AAC59" d="M14.174 10.478h1.74v5.218h-1.74zm-2.591 0c-.374 0-1.183.022-1.757.474V8.735h-1.74V12c.175.078.557.17.74.27l.152.086.074.044s-1.017 1.539-2.4 1.86c-.822.192-1.782-.043-1.982-.838l-.018-.096a5.8 5.8 0 0 1 1.096-.496l.026-.008a8.5 8.5 0 0 1 1.487-.383 5.8 5.8 0 0 0-1.591.074h-.01c-.4.078-.73.191-.986.304a1.74 1.74 0 0 1 1.43-1.243l.044-.009.13-.013h.044l.16-.009h.035l.135.01h.052l.044.008c.26.026.548.091.904.209v-1.126c-.174-.053-.313-.1-.504-.148-.5-.13-1.361-.266-2.305-.044-1.508.357-1.939 1.444-1.939 2.765 0 .174.013.33.044.479a6.3 6.3 0 0 0-.948.73l1.013-.435c.383 1.27 1.726 1.696 2.74 1.696 1.051 0 1.53-.291 2.334-.778v.787h1.74v-3.244c0-.378.695-.6 1.016-.6.422 0 .722.287.722.752v3.092h1.74v-3.592c0-1.074-.696-1.626-1.722-1.626m3.46-2.174c-.508 0-.87.361-.87.87s.362.87.87.87c.51 0 .87-.361.87-.87s-.36-.87-.87-.87m6.522 4.348v-2.174h-1.739v.47c-1.691-1.07-2.66.03-2.66.03-.523.457-.818 1.196-.818 2.118 0 1.63 1 2.6 2.291 2.6.487 0 .935-.11 1.322-.635.043.126.143.53.213.635H22c-.313-.505-.444-2.53-.435-3.044m-2.517 1.63c-.565 0-.97-.486-.97-1.173s.405-1.174.97-1.174c.4 0 .626.239.778.617v1.113c-.152.378-.378.618-.778.618"/>
</svg>
